X:1
T:Nereidas
T:Nereidas
T:Amador Pérez "Dimas"
T:Transcripción: Alberto Betancourt
T:2
T:Nereidas
C:Amador  Perez Dimas
Z:All Rights Reserved
L:1/8
Q:1/4=120
M:4/4
K:Dmin
V:1 treble nm="MusicXML Part"
%%MIDI program 0
%%MIDI control 7 102
%%MIDI control 10 64
V:1
"^Danzón" z Ade f e2 d |:"A7" e z z2 z4 | z A^cd e d2 c |"Dm" d z z2 z2 z2 | z2 AA BA^GA | %5
"A7" e2 ^cd- de f2 |"Dm" e d2 ^c dAFD |"Gm6/Bb" B2 AB- Bd ^c2 |1"A7" !breath!.A(Ad)e f e2 d :|2 %9
"A7" A2 A2 z A^GA ||"Dm" F4- F E2 D | A,4 z DFA | F3 E D^CDF |"A7" E4 z BAB | G4- G E2 ^C | %15
 A,4 z ^CEG | B4- B A2 ^G |"Dm" A4 z A^GA | F4- F E2 D | A,4 z A^GA |"D7" ^F3 D F A2 c | %21
"Gm" B4 z .^F.G.A |"^N.C:" .B2 .A.B .G.E.^C.A, | (B,A,)(D^C) (FE)(BA) |"A7" A2 EG- GF E2 | %25
"Dm" D(Ade f e2 d |"A7" e) z z2 z2 z2 | z A^cd e d2 c |"Dm" d z z2 z4 | z2 AA BA^GA | %30
"A7" e2 ^cd- de f2 |"Dm" e d2 ^c dAFD |"Gm6/Bb" B2 AB- Bd ^c2 |"A7" A2 z2 A2 z2 ||[K:D]"D" F8 | %35
 E2 D4- DF | B8 | _B A3- A2 z c | e8 |"Dm6/F" d A3- A3 _A |"Em" G8 |"B7" z4 z4 |"Em" B8 | %43
"A7" G4 E2 C2 | e8 |"D" d4 z4 |"E7" ^g8 | e4 d2 ^g2 |"A7" a6 A2 | d<c B2 G2 E2 |"D" F8 | %51
 E2 D2- D3 F | B8 | _BA- A4 z c | e8 |"D7" d A3- A3 d |"G" B8- |"B7" B6 z2 |"Em" B3 c- c2 e2 | %59
 d3 c-"A7" c3 B |"D" A3 F- FA d2 | A4 z2 ^A2 |"Em7" B3 g- g2 f2 |"A7" f6 e2 | %64
"D6" d2 !>!B2 !>!A2 !>!F2 ||[K:Dmin] !>!D"^N.C."Ade f e2 d |"A7" e z z2 z4 | z A^cd e d2 c | %68
"Dm" d z z2 z4 | z2 AA BA^GA |"A7" e2 ^cd- de f2 |"Dm" e d2 ^c dAFD |"Gm6/Bb" B2 AB- Bd ^c2 | %73
"A7" A2 z A AA A2 |:[K:bass]S z2 A,,2 ^C,2 E,2 |"Dm" D,2 D,F,- F,F, A,2 |"A7" z2 A,,2 ^C,2 E,2 | %77
"Dm" D,2 D,F,- F,F, A,2 :| z4 A,,2 D,2- | D,2 A,A,,- A,,A,, D,2 | z2 A,2 A,,2 A,2 | %81
 D,2 E,2 F,2 ^F,2O ||[K:treble]"Gm" B A2 G- G4 |"Dm" A G2 F- FEF^F | %84
"A7" G F2 E- E2 A2"^D.S. al Coda" ||O"Gm" B2 B2 B2 B2 | B2 AG- G^F G2 | B6 G2- | G4 z4 | %89
"Dm" AAAA AAAA | A2 GF- FE F2 | A6 F2- | F4 z4 |"A7" z EF^F G=FEG |"Dm" F2 ED- D^C D2 | %95
"A7" E2 D2 ^C2 D2- |"Dm" D4 z4 |"Gm" z EF^F G=FEG |"Dm" F2 ED- D^C D2 | %99
"A7" !>!E2 !>!D2 !>!^C2"Dm" !>!D2 | z !>!F!>!G!>!^G"A7" !>!A2"Dm" !>!d!>!d | !>!d z z2 z4 |] %102

